X:1
T:Pardon, Peace and Power
T:Pardon, Peace and Power
T:James McGranahan
T:Daniel Webster Whittle, 1883
T:Public Domain Courtesy of the Cyber Hymnal™
T:Public Domain Courtesy of the Cyber Hymnal™
C:James McGranahan
Z:Public Domain
Z:Courtesy of the Cyber Hymnal™
%%score 1 ( 2 3 )
L:1/8
Q:1/4=107
M:6/8
K:Bb
V:1 treble 
V:2 bass 
V:3 bass 
V:1
 [DF] | [DF]2 [^C=E] [DF]2 [_EG] | [DF]2 [CE] [B,D]2 [DF] | [DB]2 [CA] [DB]2 [Ec] | %4
w: 1.~Would|we be joy- ful|in the Lord? Then|count the rich- es|
w: 2.~From|ev- ery sin by|grace di- vine, A|par- don free be-|
w: 3.~Of|grace to break the|power of sin, He|gives a full sup-|
w: 4.~The|power to win a|soul to God, The|Spir- it, too, im-|
w: 5.~These|bless- ings we by|faith re- ceive, By|sim- ple child- like|
 [Fd]3- [Fd]2 [DF] | [DF]2 [^C=E] [DF]2 [_EG] | [DF]2 [CE] [B,D]2 [DF] | [EG]2 [EB] [DB]2 [CA] | %8
w: o’er, * Re-|vealed to faith with-|in His Word, And|note the bound- less|
w: stowed; * And|with the par- don,|peace is mine, The|peace in Je- sus’|
w: ply; * The|Ho- ly Ghost, the|heart with- in, From|sin doth pur- i-|
w: parts; * And|He, the gift of|Christ our Lord, Dwells|now in all our|
w: trust; * In|Christ, ’tis God’s de-|light to give; He|prom- ised, and He|
 [DB]3 ||[M:12/8]"^Refrain" [DF]2 [DB] | [Fd]6- [Fd]2 [EA] [DB]2 [B,D] | %11
w: store.|||
w: blood.|||
w: fy.|There is|par- * don, peace and|
w: hearts.|||
w: must.|||
 [DF]6- [DF]2 [^C=E] [DF]2 [DB] | [EA]6- [EA]2 [EF] [EA]2 [Ec] | [DB]6- [DB]2 [DF] [DB]2 [Fd] | %14
w: |||
w: |||
w: power, * And pur- i-|ty, * and par- a-|dise; * With all of|
w: |||
w: |||
 [_Af]6- [Af]2 [AB] [Ad]2 [Af] | [Ge]6- [Ge]3 [Ge]3 | [Fd]2 [DF] [DB]2 [Fd] [Ec]2 [EF] [EA]2 [Ec] | %17
w: |||
w: |||
w: these * in Christ for|me, * Let|joy- ful songs of praise to Him a-|
w: |||
w: |||
 [DB]6- [DB]3 |] %18
w: |
w: |
w: rise! *|
w: |
w: |
V:2
 [B,,B,] | [B,,B,]2 [B,,B,] [B,,B,]2 [B,,B,] | [B,,B,]2 [B,,F,] [B,,F,]2 [B,,F,] | %3
w: ~|~ ~ ~ ~|~ ~ ~ ~|
 [B,,F,]2 [E,F,] [D,F,]2 [C,A,] | [B,,B,]3- [B,,B,]2 [B,,B,] | [B,,B,]2 [B,,B,] [B,,B,]2 [B,,B,] | %6
w: ~ ~ ~ ~|~ * ~|~ ~ ~ ~|
 [B,,B,]2 [B,,F,] [B,,F,]2 [B,,B,] | [E,B,]2 [E,G,] F,2 F, | [B,,F,]3 ||[M:12/8] z3 | %10
w: ~ ~ ~ ~|~ ~ ~ ~|~||
 [B,,B,]2 [B,,B,] [B,,B,]2 [B,,B,] [B,,B,]2 z4 | [B,,B,]2 [B,,B,] [B,,B,]2 [B,,B,] [B,,B,]2 z4 | %12
w: par- don, peace and power,|par- don, peace and power,|
 z2 [F,C] [F,C]2 [F,C] [F,C]2 z4 | z2 [B,,F,] [B,,F,]2 [B,,F,] [B,,F,]2 z4 | %14
w: And pur- i- ty,|and par- a- dise;|
 z2 [B,D] [B,D]2 [B,D] [B,D]2 z4 | z2 [E,B,] [E,B,]2 [E,B,] [E,B,]3 [E,B,]3 | %16
w: With all of these|in Christ for me, *|
 [F,B,]2 [F,B,] [F,B,]2 [F,B,] [F,A,]2 [F,A,] [F,C]2 [F,A,] | [B,,F,B,]6- [B,,F,B,]3 |] %18
w: ||
V:3
 x | x6 | x6 | x6 | x6 | x6 | x6 | x3 F,2 F, | x3 ||[M:12/8] x3 | x12 | x12 | x12 | x12 | x12 | %15
 x12 | x12 | x9 |] %18

